X:1
T:Zwölf Gesänge, Op.3
T:Der traurige Wanderer
T:Zwölf Gesänge, Op.3
T:2. Der traurige Wanderer
T:Louise Reichardt
T:Achim von Arnim
T:OpenScore (CC0)
T:OpenScore (CC0)
C:Louise Reichardt
Z:Achim von Arnim
Z:OpenScore (CC0)
%%score 1 { 2 | 3 }
L:1/8
Q:1/4=70
M:2/4
K:G
V:1 treble nm="Voice"
V:2 treble nm="Piano"
V:3 bass 
V:1
"^Langsam und leise"!p! D |: D2 D2 | D3 G | F2 G2 | B A z G | c2 B2 | A3 G | (F2 G) E | D3!mp! D | %9
w: Der|Blin- de|schleicht am|Wan- der-|sta- be weiss|nicht das|schon die|Sonn' * im|Meer, er|
 D2 D2 | D3 G | F2 G2 | A2 z G | c2 B2 | A3/2 A/ _B3/2 G/ | (G2 F2) |1 G2 z D :|2 %17
w: trägt an|sei- ne|Last so|schwer, die|Last ist|sei- ne letz- te|Ha- *|be. [2.] Er|
[Q:1/4=65] G2"^Schluss." !fermata!z2 |] %18
w: |
V:2
 z |:!p! B,/D/G/D/ C/D/A/D/ | B,/D/G/D/ B,/D/G/D/ | C/D/F/D/ B,/D/G/D/ | A,/D/F/D/ B,/D/G/D/ | %5
 C/G/c/G/ D/G/B/G/ |!>(! D/F/A/F/ D/F/G/D/ | A,/D/F/!>)!!pp!D/[I:staff +1] G,/^C/E/C/ | %8
 F,/A,/D/A,/!p! F,/A,/=C/A,/ |[I:staff -1] B,/D/G/D/ C/D/A/D/ | B,/D/G/D/ B,/D/G/D/ | %11
 C/D/F/D/ B,/D/G/D/ | A,/D/F/D/!mf! B,/D/G/D/ | C/G/c/G/ D/G/B/G/ | C/E/A/E/ _B,/E/G/E/ | %15
 A,/D/G/D/ C/D/F/D/ |1 B,/D/G/D/!p! B,/D/G/D/ :|2 B,/D/G/D/ !fermata!B, z |] %18
V:3
 z |: [G,,G,]2 [D,F,]2 | [G,,G,]2 [G,,G,]2 | [D,A,]2 [G,,G,]2 | [D,,D,]2 [=F,,=F,]2 | %5
 [E,,E,]2 [D,,D,]2 | [C,,C,]2 [B,,,B,,]2 | [A,,,A,,]4 | [D,,D,]4 | [G,,G,]2 [D,F,]2 | %10
 [G,,G,]2 [G,,G,]2 | [D,A,]2 [G,,G,]2 | [D,,D,]2 [=F,,=F,]2 | [E,,E,]2 [D,,D,]2 | %14
 [C,,C,]2 [^C,,^C,]2 | [D,,D,]4 |1 [G,,,G,,]4 :|2 [G,,,G,,]4 |] %18

